X:0533
T:Irish Pelt.
M:6/8
L:1/8
Q:3/8=124
I: :: ::
Z:Jack Campin * www.campin.me.uk * 2009
K:E Minor
BAB    EFE|BAG    FED|BAB EFE|BAB dAF |
BAB    EFE|BAG    FED|AFD DFD|ABA AGF::
EFE    E2e|DED    D2d|EFE EEe|BcB BAF |
E/E/EE E2e|D/D/DD D2d|AFD DFD|ABA AGF:|
<end>
<start>
